!!!COM: Hugo Wolf
!!!CNT: Deutscher
!!!TXO: Deutsche 
!!!OTL: Was in der Schenke Waren Heute
!!!ODT: 1889/01/16
!!!ONM: No. 38
!!!LYR: Johann Wolfgang von Goethe
!!!ENC: Brian Bice
!!!YOR: 45 Songs on Poems of Goethe and Eichendorff, Dover Publications, 1995
!!NB: Vocal melody and text only encoded.
**kern	**silbe
*clefG2	*
*k[b-]	*
*M6/8	*
=5	=5
{8dd	{Was
8dd	in
8dd	der
4dd	Schen-
8dd	-ke
=6	=6
4dd	wa-
8dd	-ren
8dd	heu-
8ee-	-te
8ee-	am
=7	=7
4ee-	fru2h-
8een	-sten
4.een	Mor-
=8	=8
8ee	-gen
8ee	fu2r
8gg	Tu-
4b-	-mul-
8a}	-te!}
=9	=9
4r	.
{8dd	{Der
[4.dd	Wirt
=10	=10
8dd]	|
8r	.
8dd	und
4dd	Ma2d-
8e-	-chen!
=11	=11
4r	.
[8een	Fak-
4een]	|
8en	-keln,
=12	=12
4r	.
8r	.
[4.gg	Leu-
=13	=13
4gg]	|
8g}	-te!}
4r	.
{[8ee	{was
=14	=14
4ee]	|
[8ee	gab's
4ee]	|
8ff	fu2r
=15	=15
4ff	Ha2n-
8cc	-del,
8r	.
8ff#	fu2r
8ff#	In-
=16	=16
4.ff#	-sul-
4bn}	-te!}
8r	.
=17	=17
4r	.
{8ee	{Die
[4.ee	Flo2-
=18	=18
4ee]	|
8gg	-te
4.ee	klang,
=19	=19
4r	.
8ee	die
[4.ee	Trom-
=20	=20
4ee]	|
16gg	-mel
16ff	|
4.ee}	scholl!}
=21	=21
4r	.
8r	.
{4.cc	{das
=22	=22
4.cc	war
4.cc	ein
=23	=23
4.cc	wu2-
4.cc	-stes
=24	=24
[2.ee	We-
=25	=25
4.ee]	|
4.g}	-sen;}
=27	=27
4r	.
8r	.
{4.ee-	{doch
=28	=28
4.ee-	bin
4.dd-	ich,
=29	=29
4cc	Lust
8ee-	und
([4.ee-	Lie-
=30	=30
4ee-]	|
8ff)	|
(4ee-	-be
8dd-)	|
=31	=31
[4.cc	voll,
8cc]}	|}
8r	.
8r	.
=32	=32
{2.dd	{auch
=33	=33
[4.een	selbst
8een]	|
8dd	|
8cc	da-
=34	=34
[4.dd	-bei
8dd]	|
8r	.
8gg	ge-
=35	=35
4.gg	-we-
4.cc}	-sen.}
=48	=48
{4.bn	{Dass
4bn	ich
8bn	von
=49	=49
4.f	Sit-
4.f	-te
=50	=50
[4.bn	nichts
4bn]	|
8bn	ge-
=51	=51
4.f}	-lernt,}
4r	.
8r	.
=52	=52
{4.bn	{dar-
4bn	-u2-
8cc	-ber
=53	=53
8.cc#	ta-
8.dd	-delt
8.dd	mich
8.ee	ein
=54	=54
2.a	je-
=55	=55
4.g#}	-der;}
4r	.
8r	.
=57	=57
{4.ee	{doch
4ee	bleib
8ee	ich
=58	=58
4.a	weis-
4.b-	-lich
=59	=59
[4.ee	weit
4ee]	|
8ee	ent-
=60	=60
4.f}	-fernt}
{4.f	{vom
=61	=61
4.a	Streit
4.b-	der
=62	=62
4ee-	Schu-
8ee-	-len
8ee-	und
8ff	|
8gg	Ka-
=63	=63
([2.a	-the-
=64	=64
4a]	|
8dd)	|
4.dd}	-der.}
*-	*-
